X:1
T:Mendebras, 76.76 D
T:Lowell Mason, 1839
T:Mendebras, 76.76 D
T:Public Domain
C:Lowell Mason, 1839
Z:Public Domain
%%score ( 1 2 ) ( 3 4 )
L:1/8
M:4/4
K:F
V:1 treble 
V:2 treble 
V:3 bass 
V:4 bass 
V:1
 F>G | [CA]3 [CA] AGFG | [CF]2 C4 [CF][FA] | [Ac]2 [Ac]2 [Ac][GB][FA][GB] | [FA]6 F>G | %5
 [CA]3 [CA] AGFG | [CF]2 C4 [CF][FA] | [Ac]2 [Ac]2 [Ac][GB][FA][GB] | [FA]6 [Fc]2 | %9
 [Fd]3 [Fd] [Fd]2 [Fd]2 | [Fc]2 [FA]4 [Fc]2 | [Ac]2 [GB][FA] [GB]2 [Ec]2 | [FA]6 [Fc]2 | %13
 [Fd]3 [Fd] [Ff]2 [Fd]2 | [Fc]2 [CA]4 [Fc]2 | [Fc]2 [FA][Ac] [Ac][GB][FA][EG] | F6 |] %17
V:2
 C2 | x4 C2 C2 | x8 | x8 | x6 C2 | x4 C2 C2 | x8 | x8 | x8 | x8 | x8 | x8 | x8 | x8 | x8 | x8 | %16
 F6 |] %17
V:3
 A,>B, | [F,C]3 [F,C] CB,A,B, | [F,A,]2 [F,A,]4 A,C | [F,F]2 [F,C]2 [C,C]2 [C,C]2 | [F,C]6 A,>B, | %5
 [F,C]3 [F,C] CB,A,B, | [F,A,]2 [F,A,]4 A,C | [F,F]2 [F,C]2 [C,C]2 [C,C]2 | [F,C]6 [F,A,]2 | %9
 [B,,B,]3 [B,,B,] B,,C,D,E, | [F,A,]2 [F,C]4 [F,A,]2 | [C,C]2 [C,C]2 [C,C]2 [C,C]2 | %12
 [F,C]6 [F,A,]2 | [B,,B,]3 [B,,B,] [B,,D]2 [D,B,]2 | [F,A,]2 [F,C]4 [F,A,]2 | %15
 [C,A,]2 [C,C]2 [C,C]2 CB, | [F,A,]6 |] %17
V:4
 F,2 | x4 C,2 C,2 | x6 F,2 | x8 | x6 F,2 | x4 C,2 C,2 | x6 F,2 | x8 | x8 | x4 B,2 B,2 | x8 | x8 | %12
 x8 | x8 | x8 | x6 C,2 | x6 |] %17

